X: 11
T: The Swallowtail
R: jig
M: 6/8
L: 1/8
K: Edor
|:"Em"GEE BEE|GEG BAG|"D"FDD ADD|dcd AGF|
  "Em"GEE BEE|GEG B2c|"D"dcd AGF|"Em"GEE E3:|
|:"Em"Bcd e2f|e2f edc|Bcd e2f|edB "D"d3|
  "Em"Bcd e2f|e2f edc|"D"dcd AGF|"Em"GEE E3:||

%%newpage
%%header "Blank		$P"
